svg/Boton_borrar.svg

<svg width="49" height="61" viewBox="0 0 49 61" fill="none" xmlns="http://www.w3.org/2000/svg">
<path d="M36.6 7.11667V12.2H45.75C46.5589 12.2 47.3347 12.5213 47.9067 13.0933C48.4787 13.6653 48.8 14.4411 48.8 15.25C48.8 16.0589 48.4787 16.8347 47.9067 17.4067C47.3347 17.9787 46.5589 18.3 45.75 18.3H3.05C2.24109 18.3 1.46531 17.9787 0.893324 17.4067C0.321338 16.8347 0 16.0589 0 15.25C0 14.4411 0.321338 13.6653 0.893324 13.0933C1.46531 12.5213 2.24109 12.2 3.05 12.2H12.2V7.11667C12.2 3.18827 15.3883 0 19.3167 0H29.4833C33.4117 0 36.6 3.18827 36.6 7.11667ZM10.1504 27.145L12.8344 53.985C12.8596 54.2359 12.9772 54.4686 13.1643 54.6376C13.3515 54.8067 13.5948 54.9002 13.847 54.9H34.953C35.2052 54.9002 35.4485 54.8067 35.6356 54.6376C35.8228 54.4686 35.9404 54.2359 35.9656 53.985L38.6496 27.145C38.7504 26.3572 39.1546 25.6398 39.7762 25.1453C40.3978 24.6509 41.1877 24.4184 41.978 24.4973C42.7683 24.5763 43.4967 24.9604 44.0082 25.568C44.5197 26.1756 44.774 26.9587 44.7171 27.7509L42.0331 54.5909C41.8594 56.3476 41.0383 57.9768 39.7296 59.1615C38.4209 60.3461 36.7182 61.0015 34.953 61H13.847C12.0829 60.9998 10.3818 60.3443 9.07358 59.1609C7.76537 57.9774 6.94334 56.3502 6.76693 54.595L4.08293 27.755C4.032 27.3512 4.06241 26.9413 4.17236 26.5494C4.28232 26.1575 4.4696 25.7916 4.72317 25.4732C4.97674 25.1548 5.29147 24.8904 5.64881 24.6956C6.00616 24.5007 6.39888 24.3793 6.80386 24.3386C7.20883 24.2979 7.61786 24.3387 8.00684 24.4585C8.39582 24.5783 8.75689 24.7748 9.06876 25.0363C9.38063 25.2978 9.637 25.6191 9.82276 25.9813C10.0085 26.3435 10.1199 26.7391 10.1504 27.145ZM18.3 7.11667V12.2H30.5V7.11667C30.5 6.84703 30.3929 6.58844 30.2022 6.39777C30.0116 6.20711 29.753 6.1 29.4833 6.1H19.3167C19.047 6.1 18.7884 6.20711 18.5978 6.39777C18.4071 6.58844 18.3 6.84703 18.3 7.11667Z" fill="white"/>
</svg>

<svg width="49" height="61" fill="none" xmlns="http://www.w3.org/2000/svg"><path d="M36.6 7.117V12.2h9.15a3.05 3.05 0 1 1 0 6.1H3.05a3.05 3.05 0 1 1 0-6.1h9.15V7.117A7.12 7.12 0 0 1 19.317 0h10.166A7.12 7.12 0 0 1 36.6 7.117ZM10.15 27.145l2.684 26.84a1.016 1.016 0 0 0 1.013.915h21.106a1.017 1.017 0 0 0 1.013-.915l2.684-26.84a3.05 3.05 0 0 1 6.067.606l-2.684 26.84A7.109 7.109 0 0 1 34.953 61H13.847a7.117 7.117 0 0 1-7.08-6.405l-2.684-26.84a3.05 3.05 0 1 1 6.067-.61ZM18.3 7.117V12.2h12.2V7.117A1.017 1.017 0 0 0 29.483 6.1H19.317A1.016 1.016 0 0 0 18.3 7.117Z" fill="#fff"/></svg>
